static/images/navigation/company/eye.svg

<svg height="57.668" viewBox="0 0 74.655 57.668" width="74.655" xmlns="http://www.w3.org/2000/svg"><g fill="#414042"><path d="m38.176 11.369a59.765 59.765 0 0 0 -3.987-4.611.977.977 0 1 0 -1.422 1.342c1.623 1.72 2.789 3.117 3.388 3.862-2.742 3.438-17.481 20.804-35.109 20.804s-32.364-17.366-35.11-20.804c2.781-3.435 17.719-20.813 35.11-20.813 10.764 0 20.534 6.645 26.837 12.219a.978.978 0 0 0 1.294-1.468c-6.554-5.8-16.756-12.705-28.131-12.705-10.583 0-20.128 6.046-26.27 11.117a72.841 72.841 0 0 0 -10.86 11.057.976.976 0 0 0 0 1.17 70.6 70.6 0 0 0 10.755 11.061c6.111 5.073 15.648 11.119 26.375 11.119s20.263-6.046 26.375-11.119a70.6 70.6 0 0 0 10.759-11.061.976.976 0 0 0 0-1.17" transform="translate(36.282 16.877)"/><path d="m0 4.834a9.428 9.428 0 1 0 18.856 0 .977.977 0 1 0 -1.954 0 7.474 7.474 0 1 1 -7.474-7.474.975.975 0 0 0 .977-.977.977.977 0 0 0 -.977-.977 9.439 9.439 0 0 0 -9.428 9.428" transform="translate(27.9 24)"/><path d="m0 8.425a16.432 16.432 0 1 0 16.432-16.432 16.451 16.451 0 0 0 -16.432 16.432m30.91 0a14.478 14.478 0 1 1 -14.478-14.478 14.494 14.494 0 0 1 14.478 14.478" transform="translate(20.896 20.409)"/><path d="m.5 1.662a.977.977 0 0 0 .978-.976v-1.286a.977.977 0 0 0 -.978-.98.977.977 0 0 0 -.976.98v1.286a.977.977 0 0 0 .976.976" transform="translate(36.827 1.58)"/><path d="m.36 1.616a.989.989 0 0 0 .275.039.979.979 0 0 0 .938-.7l.361-1.239a.978.978 0 0 0 -.663-1.216.979.979 0 0 0 -1.212.668l-.359 1.238a.976.976 0 0 0 .66 1.21" transform="translate(49.071 3.394)"/><path d="m.246 1.5a.966.966 0 0 0 .495.135.98.98 0 0 0 .843-.48l.655-1.107a.978.978 0 0 0 -.345-1.34.981.981 0 0 0 -1.338.345l-.656 1.11a.978.978 0 0 0 .346 1.337" transform="translate(60.519 9.017)"/><path d="m.5 1.507a.979.979 0 0 0 .747-.347l.832-.985a.977.977 0 0 0 -.117-1.375.978.978 0 0 0 -1.377.117l-.831.983a.977.977 0 0 0 .746 1.607" transform="translate(70.018 16.436)"/><path d="m.206 1.276a.979.979 0 0 0 .938.7.993.993 0 0 0 .275-.041.975.975 0 0 0 .662-1.207l-.361-1.236a.976.976 0 0 0 -1.213-.665.977.977 0 0 0 -.663 1.211z" transform="translate(23.807 3.071)"/><path d="m.406 1.325a.98.98 0 0 0 .843.48.966.966 0 0 0 .495-.135.978.978 0 0 0 .344-1.339l-.654-1.11a.979.979 0 0 0 -1.334-.345.976.976 0 0 0 -.349 1.338z" transform="translate(12.146 8.849)"/><path d="m.544 1.329a.972.972 0 0 0 .747.347.963.963 0 0 0 .63-.23.978.978 0 0 0 .117-1.377l-.831-.985a.979.979 0 0 0 -1.377-.117.977.977 0 0 0 -.117 1.377z" transform="translate(2.845 16.266)"/><path d="m.5 0a.977.977 0 0 0 -.976.977v1.289a.977.977 0 0 0 1.954 0v-1.289a.977.977 0 0 0 -.978-.977" transform="translate(36.827 54.425)"/><path d="m.827.02a.981.981 0 0 0 -1.212.663l-.362 1.237a.975.975 0 0 0 .663 1.211.922.922 0 0 0 .275.041.979.979 0 0 0 .938-.7l.361-1.241a.976.976 0 0 0 -.663-1.211" transform="translate(24.397 52.638)"/><path d="m1.092.07a.977.977 0 0 0 -1.338.344l-.654 1.109a.978.978 0 0 0 .345 1.34.987.987 0 0 0 .493.137.98.98 0 0 0 .843-.48l.655-1.11a.978.978 0 0 0 -.344-1.34" transform="translate(12.798 47.081)"/><path d="m.544.178-.831.985a.978.978 0 0 0 .117 1.377.967.967 0 0 0 .63.23.972.972 0 0 0 .747-.347l.831-.985a.977.977 0 1 0 -1.494-1.26" transform="translate(2.846 39.895)"/><path d="m.982.36a.978.978 0 0 0 -1.213-.66.975.975 0 0 0 -.663 1.208l.361 1.235a.979.979 0 0 0 .938.7.989.989 0 0 0 .275-.035.977.977 0 0 0 .663-1.208z" transform="translate(49.661 52.962)"/><path d="m.932.246a.979.979 0 0 0 -1.338-.346.978.978 0 0 0 -.344 1.339l.65 1.111a.98.98 0 0 0 .843.48.977.977 0 0 0 .839-1.473z" transform="translate(61.171 47.25)"/><path d="m.884.178a.977.977 0 0 0 -1.377-.117.978.978 0 0 0 -.117 1.377l.831.985a.977.977 0 0 0 1.494-1.26z" transform="translate(70.382 39.894)"/></g></svg>

<?xml version="1.0" encoding="UTF-8"?>
<svg xmlns="http://www.w3.org/2000/svg" width="74.655" height="57.668" viewBox="0 0 74.655 57.668">
  <g id="Group_1141" data-name="Group 1141" transform="translate(-2244 71.9)">
    <g id="Group_1078" data-name="Group 1078" transform="translate(2244 -65.828)">
      <path id="Path_2416" data-name="Path 2416" d="M38.176,11.369a59.765,59.765,0,0,0-3.987-4.611A.977.977,0,1,0,32.767,8.1c1.623,1.72,2.789,3.117,3.388,3.862C33.413,15.4,18.674,32.766,1.046,32.766S-31.318,15.4-34.064,11.962C-31.283,8.527-16.345-8.851,1.046-8.851c10.764,0,20.534,6.645,26.837,12.219A.978.978,0,0,0,29.177,1.9C22.623-3.9,12.421-10.805,1.046-10.805c-10.583,0-20.128,6.046-26.27,11.117a72.841,72.841,0,0,0-10.86,11.057.976.976,0,0,0,0,1.17A70.6,70.6,0,0,0-25.329,23.6c6.111,5.073,15.648,11.119,26.375,11.119S21.309,28.673,27.421,23.6A70.6,70.6,0,0,0,38.18,12.539a.976.976,0,0,0,0-1.17" transform="translate(36.282 10.805)" fill="#414042"></path>
    </g>
    <g id="Group_1079" data-name="Group 1079" transform="translate(2271.9 -52.494)">
      <path id="Path_2417" data-name="Path 2417" d="M0,4.834a9.428,9.428,0,1,0,18.856,0,.977.977,0,1,0-1.954,0A7.474,7.474,0,1,1,9.428-2.64a.975.975,0,0,0,.977-.977.977.977,0,0,0-.977-.977A9.439,9.439,0,0,0,0,4.834" transform="translate(0 4.594)" fill="#414042"></path>
    </g>
    <g id="Group_1080" data-name="Group 1080" transform="translate(2264.896 -59.498)">
      <path id="Path_2418" data-name="Path 2418" d="M0,8.425A16.432,16.432,0,1,0,16.432-8.007,16.451,16.451,0,0,0,0,8.425m30.91,0A14.478,14.478,0,1,1,16.432-6.053,14.494,14.494,0,0,1,30.91,8.425" transform="translate(0 8.007)" fill="#414042"></path>
    </g>
    <g id="Group_1081" data-name="Group 1081" transform="translate(2280.351 -71.9)">
      <path id="Path_2419" data-name="Path 2419" d="M.5,1.662A.977.977,0,0,0,1.478.686V-.6A.977.977,0,0,0,.5-1.58.977.977,0,0,0-.476-.6V.686A.977.977,0,0,0,.5,1.662" transform="translate(0.476 1.58)" fill="#414042"></path>
    </g>
    <g id="Group_1082" data-name="Group 1082" transform="translate(2292.729 -70.042)">
      <path id="Path_2420" data-name="Path 2420" d="M.36,1.616a.989.989,0,0,0,.275.039.979.979,0,0,0,.938-.7L1.934-.284A.978.978,0,0,0,1.271-1.5.979.979,0,0,0,.059-.832L-.3.406A.976.976,0,0,0,.36,1.616" transform="translate(0.342 1.536)" fill="#414042"></path>
    </g>
    <g id="Group_1083" data-name="Group 1083" transform="translate(2304.285 -64.309)">
      <path id="Path_2421" data-name="Path 2421" d="M.246,1.5a.966.966,0,0,0,.495.135.98.98,0,0,0,.843-.48L2.239.048a.978.978,0,0,0-.345-1.34A.981.981,0,0,0,.556-.947L-.1.163A.978.978,0,0,0,.246,1.5" transform="translate(0.234 1.426)" fill="#414042"></path>
    </g>
    <g id="Group_1084" data-name="Group 1084" transform="translate(2313.542 -56.896)">
      <path id="Path_2422" data-name="Path 2422" d="M.5,1.507a.979.979,0,0,0,.747-.347L2.079.175A.977.977,0,0,0,1.962-1.2a.978.978,0,0,0-1.377.117L-.246-.1A.977.977,0,0,0,.5,1.507" transform="translate(0.476 1.432)" fill="#414042"></path>
    </g>
    <g id="Group_1085" data-name="Group 1085" transform="translate(2267.612 -70.041)">
      <path id="Path_2423" data-name="Path 2423" d="M.206,1.276a.979.979,0,0,0,.938.7.993.993,0,0,0,.275-.041A.975.975,0,0,0,2.081.728L1.72-.508A.976.976,0,0,0,.507-1.173.977.977,0,0,0-.156.038Z" transform="translate(0.195 1.212)" fill="#414042"></path>
    </g>
    <g id="Group_1086" data-name="Group 1086" transform="translate(2255.761 -64.31)">
      <path id="Path_2424" data-name="Path 2424" d="M.406,1.325a.98.98,0,0,0,.843.48.966.966,0,0,0,.495-.135A.978.978,0,0,0,2.088.331L1.434-.779A.979.979,0,0,0,.1-1.124.976.976,0,0,0-.249.214Z" transform="translate(0.385 1.259)" fill="#414042"></path>
    </g>
    <g id="Group_1087" data-name="Group 1087" transform="translate(2246.328 -56.897)">
      <path id="Path_2425" data-name="Path 2425" d="M.544,1.329a.972.972,0,0,0,.747.347.963.963,0,0,0,.63-.23A.978.978,0,0,0,2.038.069L1.207-.916A.979.979,0,0,0-.17-1.033.977.977,0,0,0-.287.344Z" transform="translate(0.517 1.263)" fill="#414042"></path>
    </g>
    <g id="Group_1088" data-name="Group 1088" transform="translate(2280.351 -17.475)">
      <path id="Path_2426" data-name="Path 2426" d="M.5,0A.977.977,0,0,0-.476.977V2.266a.977.977,0,0,0,1.954,0V.977A.977.977,0,0,0,.5,0" transform="translate(0.476)" fill="#414042"></path>
    </g>
    <g id="Group_1089" data-name="Group 1089" transform="translate(2267.611 -19.281)">
      <path id="Path_2427" data-name="Path 2427" d="M.827.02A.981.981,0,0,0-.385.683L-.747,1.92A.975.975,0,0,0-.084,3.131a.922.922,0,0,0,.275.041.979.979,0,0,0,.938-.7L1.49,1.231A.976.976,0,0,0,.827.02" transform="translate(0.786 0.019)" fill="#414042"></path>
    </g>
    <g id="Group_1090" data-name="Group 1090" transform="translate(2255.761 -24.885)">
      <path id="Path_2428" data-name="Path 2428" d="M1.092.07A.977.977,0,0,0-.246.414L-.9,1.523a.978.978,0,0,0,.345,1.34A.987.987,0,0,0-.062,3a.98.98,0,0,0,.843-.48l.655-1.11A.978.978,0,0,0,1.092.07" transform="translate(1.037 0.066)" fill="#414042"></path>
    </g>
    <g id="Group_1091" data-name="Group 1091" transform="translate(2246.329 -32.174)">
      <path id="Path_2429" data-name="Path 2429" d="M.544.178l-.831.985A.978.978,0,0,0-.17,2.54a.967.967,0,0,0,.63.23.972.972,0,0,0,.747-.347l.831-.985A.977.977,0,1,0,.544.178" transform="translate(0.517 0.169)" fill="#414042"></path>
    </g>
    <g id="Group_1092" data-name="Group 1092" transform="translate(2292.728 -19.28)">
      <path id="Path_2430" data-name="Path 2430" d="M.982.36A.978.978,0,0,0-.231-.3.975.975,0,0,0-.894.908l.361,1.235a.979.979,0,0,0,.938.7A.989.989,0,0,0,.68,2.808.977.977,0,0,0,1.343,1.6Z" transform="translate(0.933 0.342)" fill="#414042"></path>
    </g>
    <g id="Group_1093" data-name="Group 1093" transform="translate(2304.285 -24.884)">
      <path id="Path_2431" data-name="Path 2431" d="M.932.246A.979.979,0,0,0-.406-.1.978.978,0,0,0-.75,1.239L-.1,2.35a.98.98,0,0,0,.843.48.977.977,0,0,0,.839-1.473Z" transform="translate(0.886 0.234)" fill="#414042"></path>
    </g>
    <g id="Group_1094" data-name="Group 1094" transform="translate(2313.542 -32.175)">
      <path id="Path_2432" data-name="Path 2432" d="M.884.178A.977.977,0,0,0-.493.061.978.978,0,0,0-.61,1.438l.831.985a.977.977,0,0,0,1.494-1.26Z" transform="translate(0.84 0.169)" fill="#414042"></path>
    </g>
  </g>
</svg>
